X: 1
T: The Pleasures of Youth  [A]
R: reel
Z: 2005 John Chambers <jc@trillian.mit.edu>
M: 2/4
L: 1/8
K: A
 "E7"c>d | "A"e>d cd | e2 aa | "E7"ag/a/ bb | "(A)"ba "E7"cd |
     y6  | "A"e>d cd | e2 cA | "D"DA "E7"EG | "A"A2 :|
|: "A"aa | "E7"ge "A"aa | "E7"ge "A"aa | "E"gg "B"ff | "E"e2 "E7"cd |
     y6  | "A"e>d cd | e2 cA | "D"DA "E7"EG | "A"A2 :|
